assets/figma-icon.svg

<svg fill="none" height="41" viewBox="0 0 41 41" width="41" xmlns="http://www.w3.org/2000/svg"><rect fill="#131117" height="40" rx="20" width="40" x=".5" y=".5"/><path d="m13.5469 14.2419c0-2.0666 1.6753-3.7419 3.7419-3.7419h6.4206c2.0666 0 3.7419 1.6753 3.7419 3.7419 0 1.3086-.6717 2.4603-1.6892 3.1291 1.0175.6688 1.6892 1.8205 1.6892 3.1291 0 2.0666-1.6753 3.7419-3.7419 3.7419h-.0812c-.9689 0-1.8517-.3682-2.5162-.9723v3.4478c0 2.0941-1.7191 3.7825-3.8031 3.7825-2.0614 0-3.762-1.6702-3.762-3.7419 0-1.3085.6716-2.4602 1.689-3.129-1.0174-.6688-1.689-1.8205-1.689-3.129 0-1.3086.6717-2.4603 1.6891-3.1291-1.0174-.6688-1.6891-1.8205-1.6891-3.1291zm6.3394 3.742h-2.5975c-1.3897 0-2.5162 1.1265-2.5162 2.5162 0 1.3843 1.1178 2.5075 2.5001 2.5161h.0161 2.5975zm1.2257 2.5162c0 1.3896 1.1265 2.5162 2.5162 2.5162h.0812c1.3897 0 2.5162-1.1266 2.5162-2.5162 0-1.3897-1.1265-2.5162-2.5162-2.5162h-.0812c-1.3897 0-2.5162 1.1265-2.5162 2.5162zm-3.8232 3.7419c-.0054 0-.0108 0-.0161 0-1.3823.0086-2.5001 1.1318-2.5001 2.5161 0 1.3846 1.1416 2.5162 2.5363 2.5162 1.4173 0 2.5774-1.1498 2.5774-2.5568v-2.4755zm0-12.5163c-1.3897 0-2.5162 1.1265-2.5162 2.5162s1.1265 2.5162 2.5162 2.5162h2.5975v-5.0324zm3.8232 5.0324h2.5974c1.3897 0 2.5162-1.1265 2.5162-2.5162s-1.1265-2.5162-2.5162-2.5162h-2.5974z" fill="#f5f5f5"/></svg>

<svg width="41" height="41" viewBox="0 0 41 41" fill="none" xmlns="http://www.w3.org/2000/svg">
<rect x="0.5" y="0.5" width="40" height="40" rx="20" fill="#131117"/>
<path d="M13.5469 14.2419C13.5469 12.1753 15.2222 10.5 17.2888 10.5H23.7094C25.776 10.5 27.4513 12.1753 27.4513 14.2419C27.4513 15.5505 26.7796 16.7022 25.7621 17.371C26.7796 18.0398 27.4513 19.1915 27.4513 20.5001C27.4513 22.5667 25.776 24.242 23.7094 24.242H23.6282C22.6593 24.242 21.7765 23.8738 21.112 23.2697V26.7175C21.112 28.8116 19.3929 30.5 17.3089 30.5C15.2475 30.5 13.5469 28.8298 13.5469 26.7581C13.5469 25.4496 14.2185 24.2979 15.2359 23.6291C14.2185 22.9603 13.5469 21.8086 13.5469 20.5001C13.5469 19.1915 14.2186 18.0398 15.236 17.371C14.2186 16.7022 13.5469 15.5505 13.5469 14.2419ZM19.8863 17.9839H17.2888C15.8991 17.9839 14.7726 19.1104 14.7726 20.5001C14.7726 21.8844 15.8904 23.0076 17.2727 23.0162C17.278 23.0162 17.2834 23.0162 17.2888 23.0162H19.8863V17.9839ZM21.112 20.5001C21.112 21.8897 22.2385 23.0163 23.6282 23.0163H23.7094C25.0991 23.0163 26.2256 21.8897 26.2256 20.5001C26.2256 19.1104 25.0991 17.9839 23.7094 17.9839H23.6282C22.2385 17.9839 21.112 19.1104 21.112 20.5001ZM17.2888 24.242C17.2834 24.242 17.278 24.242 17.2727 24.242C15.8904 24.2506 14.7726 25.3738 14.7726 26.7581C14.7726 28.1427 15.9142 29.2743 17.3089 29.2743C18.7262 29.2743 19.8863 28.1245 19.8863 26.7175V24.242H17.2888ZM17.2888 11.7257C15.8991 11.7257 14.7726 12.8522 14.7726 14.2419C14.7726 15.6316 15.8991 16.7581 17.2888 16.7581H19.8863V11.7257H17.2888ZM21.112 16.7581H23.7094C25.0991 16.7581 26.2256 15.6316 26.2256 14.2419C26.2256 12.8522 25.0991 11.7257 23.7094 11.7257H21.112V16.7581Z" fill="#F5F5F5"/>
</svg>
